X:1
T:O Holy Night
T:O Holy Night
T:Piano/Vocal Arrangment Arranged for Tara Nguyen for the Sacred Heart Catholic Church's 2015 Christmas Eve Service
T:Adolphe Adam
T:Arr. Elizabeth Hensley
%%score 1 { ( 2 5 ) | ( 3 4 ) }
L:1/8
Q:3/8=55
M:6/8
K:A
V:1 treble nm="Voice"
V:2 treble nm="Piano"
V:5 treble 
V:3 bass 
V:4 bass 
V:1
 z6 | z6 | z6 |"^Flowing" z6 | z6 | z6 | z6 | z6 | (C3 C2 C | E3- E2) (E | F2 F D2 F | A6 | %12
w: ||||||||O ho- ly|night! _ The|stars are bright- ly|shin-|
 E2) (E C2 B, | A,3 C2 D | E3 D2 B, | A,6) | z6 | (C3 C2 C | E3- E2) (E | F2 F D2 F | A6 | %21
w: ing. It is the|night of the|dear Sav- ior's|birth.||Long lay the|world _ in|sin and er- ror|pin-|
 E2) (E ^D2 C | G3 E2 F | G3 A2 G | C6) | z3 z2 (E | E3 F3 | B,3 E3 | F2 E A2 C | F3 E2) (E | %30
w: ing, till he ap-|peared and the|soul felt its|worth.|A|thrill of|hope, the|wear- y world re-|joic- es, for|
 E3 F3 | B,3 E3 | F2 E A2 C | E6) | A6- | A3 G2 F | G6- | G3- G2 G | B6- | B2 F F2 F | A6 | %41
w: yon- der|breaks a|new and glor- ious|morn!|Fall|_ on your|knees!|_ _ Oh,|hear|_ the an- gel|voic-|
 A3- A2 A | c6 | B3- B2 E | A6- | A3 G2 F | E6- | E2 E F2 E | E6 | z3 A3 | B6- | B3 E3 | e6 | %53
w: es! _ O|night|_ _ di-|vine!|_ O _|night|_ when Christ was|born!|O|night|_ di-|vine!|
 e2 d c2 B | A6- | A2 G !fermata!A2 B |"_a tempo" A6 | z6 | z6 | z6 |] %60
w: O _ _ _|night,|_ O night, di-|vine!||||
V:2
 [eb]3 [eb]3 | [gd']3 [eb]2 [eg] | [fa]6 | [fac']6 | [ca]3 [Be]2 [Ac] | [ce]3- [ce][Fd][GB] | A6 | %7
 z6 | A,CE A,CE | A,CE A,CE | A,DF A,DF | A,CE A,CE | A,CE A,CE | A,CE A,CD | B,DE B,FG | %15
 A3- A2 A | [CE]3 z z2 | c3- cdc | A3 [Ac][Bd][ce] | [df]3 dAF | C[CE][EA] C[CA][Ec] | %21
 [Ace]3!mf! [FA^d]3 | [cg]3- [cg]2 [cf] | [cg]3 [ca]2 [cg] | [Gc]6 |!>(! z6!>)! | E3 F3 | G3- GFE | %28
 F3- FFE | C3 Acf | e3 f3 | g3- gfe | f3- ffe | [cea]2 z ceg | [Acfa]6 | [eac']3 [Gcg]3 | [Gceg]6 | %37
 [Geg]3 [GBg]3 | [Bdb]6- | [Bdb]3 A3 | [cfa]6 | [cfa]6 | cea cea | Beg Beg | cfa cfa | Aac' g3 | %46
 cea cea | Beg Bde | e3 EAc | eac' [cea]3 | [Beb]6 | [EB]3 [Ee]3 |!mp! !arpeggio![eac'e']6 | %53
!p! [ce]6 | [EA]6 | [EG]6 | z2 z A,CE | z3!8va(! Ace!8va)! | z3!8va(! ac'e'!8va)! | %59
!pp!!8va(! [e'a']6!8va)! |] %60
V:3
 [G,B,]3 [G,B,]3 | [B,D]3 [CE]2 [G,B,] | [A,C]6 | [C,A,]6 |!mp! [C,A,]3 [B,,E,]2 C, | C,D,E, F,3 | %6
!>(! A,,D,F, A,F,D,!>)! |!>(! A,,C,E, A,E,C,!>)! |!p! C,6 | E,6 | F,6 | E,6 | z3 C,3 | A,,6 | %14
 E,3 D,3 | A,,C,E, A,,C,E, | A,,C,E, A,E,C, | A,,C,E, A,E,C, | A,,C,E, A,E,C, | A,,D,F, A,,D,F, | %20
!<(! A,3 A,3!<)! | A,,C,E, A,,C,E, | G,,C,E, G,,C,E, | G,,^B,,F, G,,B,,G, | C,E,G, C,E,G, | %25
 CG,E, C,2 z |!mp! B,,D,E, B,,D,E, | G,,D,E, G,,D,E, | A,,C,E, A,,C,E, | A,,C,E, A,,C,E, | %30
 B,,D,E, B,,D,E, | G,,D,E, G,,D,E, | A,,C,E, A,,C,E, |!<(! A,E,C, A,,C,E,!<)! | %34
!f! [C,F,A,]3 [A,,F,][A,,F,][A,,F,] | [A,C]3 [C,G,C]3 | [C,G,]3 [G,,E,][G,,E,][G,,E,] | %37
 [E,G,][E,G,][E,G,] [G,B,][G,B,][G,B,] | [B,,D,F,A,]3 [D,F,][D,F,][D,F,] | [A,,C,F,]3 [F,A,]3 | %40
 [C,F,A,]3 [C,F,A,][C,F,A,][C,F,A,] |!>(! [C,F,A,]3 [C,F,A,]3!>)! |!mp! [A,C]6 | [G,B,]6 | %44
 [F,A,]6 | [E,A,]3 [E,G,]3 | C,6 | E,6 |!<(! [E,A,]A,C [C,C]3!<)! | [E,,E,]3 [E,A,C]3 | %50
!f! [E,B,E]3 [E,,E,][E,,E,][E,,E,] | [E,,E,][E,,E,][E,,E,] [E,,E,][E,,E,][E,,E,] | [E,A,CE]6 | %53
"^rit." [CE]6 | [A,C]3 [A,C][A,C][A,C] | [B,D]6 |!>(! A,,C,E, z z2!>)! |!8va(! A,CE z z2!8va)! | %58
!8va(! Ace z z2!8va)! |!8va(! [ac']6!8va)! |] %60
V:4
 x6 | x6 | z3 F,E,D, | x6 | x6 | x6 | x6 | x6 | x6 | x6 | x6 | x6 | x6 | x6 | x6 | x6 | x6 | x6 | %18
 x6 | x6 | x6 | x6 | x6 | x6 | x6 | x6 | x6 | x6 | x6 | x6 | x6 | x6 | x6 | x6 | x6 | x6 | x6 | %37
 x6 | x6 | x6 | x6 | x6 | x6 | x6 | x6 | x6 | E,3 C3 | B,3 G,3 | x6 | x6 | x6 | x6 | x6 | x6 | x6 | %55
 x6 | x6 |!8va(! x6!8va)! |!8va(! x6!8va)! |!8va(! x6!8va)! |] %60
V:5
 x6 | x6 | x6 | x6 | x6 | x6 | x6 | x6 | x6 | x6 | x6 | x6 | x6 | x6 | x6 | x6 | x6 | x6 | x6 | %19
 x6 | x6 | x6 | x6 | x6 | x6 | x6 | x6 | x6 | x6 | x6 | x6 | x6 | x6 | x6 | x6 | x6 | x6 | x6 | %38
 x6 | z2 f fff | x6 | x6 | x6 | x6 | x6 | x6 | x6 | x6 | x6 | x6 | x6 | x6 | x6 | x6 | x6 | x6 | %56
 x6 | x3!8va(! x3!8va)! | x3!8va(! x3!8va)! |!8va(! x6!8va)! |] %60

